!!!!SEGMENT: pl-kk--kk-i-389--004-003_anonim--missa-no-4-gloria.krn
!!!cenid: 17xx:2478
!!!COM: Anonim
!!!COM-rismID: pe30004985
!!!CDT:
!!!CNT:
!!!OPR: [Missa] No. 4.
!!!OTL: Gloria
!!!OMV: 003
!!!PDT:
!!!AGN: Sacred; Mass
!!!YEC: Copyright 2022 Narodowy Instytut Fryderyka Chopina (https://polishscores.org)
!!!YEM: License CC-BY-4.0 (https://creativecommons.org/licenses/by/4.0)
!!!SMS-siglum: PL-Kk
!!!SMS-shelfmark: Kk.I.389
!!!SMS-variant:
!!!SMS-altvar:
!!!SMS-shelfwork: 004-003 M
!!!NIFC-rismSourceID: 1001146182
!!!NIFC-rismChildID: 1001146623
!!!NIFC-islandoraID: pl-kk:6976
!!!URL-pdf-islandora: https://repozytorium.nifc.pl/islandora/object/pl-kk%3A6976/datastream/PDF/view
!!!URL-scan: https://polish.musicsources.pl/pl/lokalizacje/galeria/rekopisy/5999/1 @EN{Scan on Polish Music Sources Website} @PL{Skany w portalu Dziedzictwo Muzyki Polskiej w otwartym dostępie}
!!!IIIF:
!!!ONB-nifc: UWAGA: S – skan 8-9, A – 27-28 , T –46-47 , B – 65-66 . Części Mszy: Rorate, Kyrie, Gloria, Graduale, Sanctus, Benedictus, Agnus, Dona
!!!AIN: 1 alto 1 bass 1 soprn 1 tenor
!!!key: F
**kern	**text	**kern	**text	**kern	**text	**kern	**text
*part4	*part4	*part3	*part3	*part2	*part2	*part1	*part1
*staff4	*staff4	*staff3	*staff3	*staff2	*staff2	*staff1	*staff1
*I"Basso.	*	*I"Tenore.	*	*I"Alto.	*	*I"Soprano.	*
*I'[B]	*	*I'[T]	*	*I'[A]	*	*I'[S]	*
*ICvox	*	*ICvox	*	*ICvox	*	*ICvox	*
*Ibass	*	*Itenor	*	*Ialto	*	*Isoprn	*
*clefF4	*	*clefC4	*	*clefC3	*	*clefC1	*
*k[b-]	*	*k[b-]	*	*k[b-]	*	*k[b-]	*
*F:	*	*F:	*	*F:	*	*F:	*
*M2/2	*	*M2/2	*	*M2/2	*	*M2/2	*
*met(C.|)	*	*met(C.|)	*	*met(C.|)	*	*met(C.|)	*
=1	=1	=1	=1	=1	=1	=1	=1
!!LO:TX:t=P:problem:all\right	!	!	!	!	!	!	!	!	!	!	!	!	!	!
*	*	*2\right	*	*	*	*	*
4F\	Et	2.c\	Et	4a\	Et	4ff\	Et
4G\	.	.	.	8g\L	in	8ee\L	.
.	.	.	.	8b-\J	.	8dd\J	.
4A\	.	.	.	4a\	ter-	4cc\	.
4B-\	in	4c\	in	4g\	-ra	4b-\	in
=2	=2	=2	=2	=2	=2	=2	=2
4A\	ter-	4c\	ter-	4f\	ter-	4a\	ter-
4G\	-ra	4B-\	-ra	4g\	-ra	4b-\	-ra
4F\	pax	4A\	pax	4a\	pax	4cc\	pax
4F\	ho-	4c\	ho-	4a\	ho-	4cc\	ho-
=3	=3	=3	=3	=3	=3	=3	=3
*	*	*	*	*2\right	*	*2\right	*
2BB-/	-mi-	2B-\	-mi-	2b-\	-mi-	2dd\	-mi-
4C/	.	4F/	-ni-	4a\	.	4cc\	.
4C/	-ni-	4G/	-bus,	4g\	-ni-	4b-\	-ni-
=4	=4	=4	=4	=4	=4	=4	=4
*2\right	*	*	*	*	*	*	*
2F\	-bus,	2c\	bo-	2f\	-bus,	2a\	-bus,
4F\	bo-	4c\	.	4f\	bo-	4a\	bo-
4D\	-ne	4d\	-ne	4f\	-ne	4bn\	-ne
=5	=5	=5	=5	=5	=5	=5	=5
4E\	vo-	4e\	vo-	4g\	vo-	4cc\	vo-
4BBn/	.	4d\	.	4f\	.	4dd\	.
4C/	.	4c\	.	4g\	.	4ee\	.
4D/	-lun-	4Bn\	-lun-	4f\	-lun-	4ff\	-lun-
!	!	!	!	!	!	!LO:LB:g=original	!
=6	=6	=6	=6	=6	=6	=6	=6
4E\	-ta-	2c\	-ta-	2g\	-ta-	2ee\	-ta-
4F\	.	.	.	.	.	.	.
2G\	.	2Bn\	.	2f\	.	2dd\	.
!LO:LB:g=original	!	!	!	!LO:LB:g=original	!	!	!
=7	=7	=7	=7	=7	=7	=7	=7
2C/	-tis,	2.G/	-tis.	2e\	-tis,	2cc\	-tis
2C/	lau-	.	.	4e\	Lau-	4g\	Lau-
.	.	4r	.	4f\	.	4a\	.
=8	=8	=8	=8	=8	=8	=8	=8
!	!	!LO:TX:a:t=3.	!	!	!	!	!
2.C/	-da-	0r	.	2g\	-da-	2b-\	-da-
.	.	.	.	4f\	.	4a\	.
4E\	-mus	.	.	4e\	-mus	4g\	-mus
=9	=9	=9	=9	=9	=9	=9	=9
2F\	te,	.	.	2f\	te,	2a\	te,
4C/	be-	.	.	4e\	be-	4g\	be-
4C/	-ne-	.	.	4f\	-ne-	4a\	-ne-
=10	=10	=10	=10	=10	=10	=10	=10
2E\	-di-	1r	.	2g\	-di-	2b-\	-di-
4C/	-ci-	.	.	4f\	-ci-	4a\	-ci-
4C/	-mus	.	.	4e\	-mus	4g\	-mus
!	!	!LO:LB:g=original	!	!	!	!	!
=11	=11	=11	=11	=11	=11	=11	=11
2F\	te,	4r	.	2f\	te,	2a\	te,
.	.	4r	.	.	.	.	.
4F\	a-	4A\	a-	4a\	a-	4cc\	a-
4E\	-do-	4B-\	-do-	4g\	-do-	4b-\	-do-
=12	=12	=12	=12	=12	=12	=12	=12
4F\	-ra-	4c\	-ra-	4f\	-ra-	4a\	-ra-
4G\	-mus-	4B-\	-mus	4e\	-mus	4b-\	-mus
4A\	-te,	4A\	te	4f\	te	4cc\	te
4F\	glo-	4c\	glo-	4f\	glo-	4a\	glo-
!	!	!	!	!	!	!LO:LB:g=original	!
=13	=13	=13	=13	=13	=13	=13	=13
4B-\	-ri-	4B-\	-ri-	2f\	-ri-	4dd\	-ri-
4A\	.	4c\	.	.	.	4cc\	.
4G\	.	4B-\	.	2f\	-fi-	4b-\	.
4F\	-fi-	4c\	-fi-	.	.	4a\	-fi-
!LO:LB:g=original	!	!	!	!	!	!	!
=14	=14	=14	=14	=14	=14	=14	=14
2C/	-ca-	2c\	-ca-	2f\	-ca-	2a\	-ca-
2C/	-mus	2c\	-mus	2e\	-mus	2g\	-mus
=15	=15	=15	=15	=15	=15	=15	=15
!LO:TX:t=P:problem:segno między półnutą a pauzą	!	!LO:TX:t=P:problem:segno między półnutą a pauzą	!	!LO:TX:t=P:problem:segno między półnutą a pauzą	!	!LO:TX:t=P:problem:segno między półnutą a pauzą	!
!LO:TX:a:t=[segno]	!	!LO:TX:a:t=[segno]	!	!LO:TX:a:t=[segno]	!	!LO:TX:a:t=[segno]	!
2F\	te,	2c\	te,	2f\	te,	2a\	te,
2r	.	2r	.	2r	.	2r	.
!	!	!	!	!LO:LB:g=original	!	!	!
=16	=16	=16	=16	=16	=16	=16	=16
4BB-/	Gra-	4B-X\	Gra-	4f\	Gra-	4dd\	gra-
8D/	-ti-	8B-\	-ti-	8f\	-ti-	8dd\	-ti-
8BB-/	-as	8B-\	-as	8f\	-as	8dd\	-as
4F\	a-	4A\	a-	4f\	a-	4cc\	a-
8A\	-gi-	8c\	-gi-	8f\	-gi-	8cc\	-gi-
8F\	-mus	8A\	-mus	8f\	-mus	8cc\	-mus
=17	=17	=17	=17	=17	=17	=17	=17
4B-\	ti-	4B-\	ti-	4f\	ti-	4dd\	ti-
4BB-/	-bi	4B-\	-bi	4f\	-bi	4dd\	-bi
4B-\	pro-	4d\	pro-	4f\	pro-	2r	.
4G\	-pter	4B-\	-pter	4en\	-pter	.	.
!	!	!LO:LB:g=original	!	!	!	!	!
=18	=18	=18	=18	=18	=18	=18	=18
!	!	!	!	!	!	!LO:TX:a:t=1.	!
4A\	ma-	4c\	mag-	4f\	mag-	1r	.
4F\	-gnam	4A\	-nam	4f\	-nam	.	.
4G\	glo-	8c\L	glo-	4en\	Glo-	.	.
.	.	8B-\J	.	.	.	.	.
8F\	-ri-	8A\	-ri-	8e\	-ri-	.	.
8E\	-am	8G\	-am	8e\	-am	.	.
=19	=19	=19	=19	=19	=19	=19	=19
4F\	tu-	4A\	tu-	4c\	tu-	2r	.
4F\	-am	4A\	-am	4c\	-am	.	.
!LO:LB:g=original	!	!	!	!	!	!	!
8A\L	Do-	8c\L	Do-	4e-X\	Do-	4cc\	Do-
8F\J	.	8A\J	.	.	.	.	.
8G\L	-mi-	8B-\	-mi-	8e-\	-mi-	8cc\	-mi-
8A\J	-ne	8c\	-ne	8e-\	-ne	8cc\	-ne
!	!	!	!	!	!	!LO:PB:g=original	!
=20	=20	=20	=20	=20	=20	=20	=20
4B-\	De-	4d\	De-	4f\	De-	4b-\	De-
4BB-/	-us,	4d\	-us	4f\	-us	4b-\	-us
8A\L	Rex	8c\L	Rex	4f\	Rex	4ee-X\	Rex
8F\J	.	8A\J	.	.	.	.	.
8G\L	ce-	8B-\L	ce-	4f\	ce-	4ee-\	ce-
8A\J	.	8c\J	.	.	.	.	.
!	!	!	!	!LO:PB:g=original	!	!	!
=21	=21	=21	=21	=21	=21	=21	=21
4B-\	-les-	4d\	-les-	4f\	-les-	4dd\	-les-
4BB-/	-tis	4d\	-tis	4f\	-tis	4b-\	-tis
4D/	De-	4B-\	De-	4f\	De-	4dd\	De-
4D/	-us	4B-\	-us	4f\	-us	4dd\	-us
=22	=22	=22	=22	=22	=22	=22	=22
4E-X\	Pa-	4B-\	Pa-	4g\	Pa-	4b-\	Pa-
8D\	-ter	8B-\	-ter	8f\	-ter	8b-\	-ter
8E-\	om-	8B-\	om-	8g\	om-	8b-\	om-
4F\	-ni-	4A\	-ni-	4f\	-ni-	4cc\	-ni-
4F\	-po-	4A\	-po-	4f\	-po-	4cc\	-po-
!	!	!LO:PB:g=original	!	!	!	!	!
=23	=23	=23	=23	=23	=23	=23	=23
2D\	-tens,	2F/	-tens,	2f\	-tens	2b-\	-tens,
8G\L	Do-	8B-\L	Do-	4g\	Do-	4dd\	Do-
8A\J	.	8c\J	.	.	.	.	.
8B-\	-mi-	8d\	-mi-	8g\	-mi-	8dd\	-mi-
8G\	-ne	8B-\	-ne	8g\	-ne	8dd\	-ne
!LO:PB:g=original	!	!	!	!	!	!	!
=24	=24	=24	=24	=24	=24	=24	=24
4d\	Fi-	4A/	Fi-	4f#X\	Fi-	4dd\	Fi-
4D\	-li	4A/	-li	4f#\	-li	4dd\	-li
8D\L	u-	8F#X/L	u-	4a\	u-	4cc\	u-
8En\J	.	8G/J	.	.	.	.	.
8F#X\L	-ni	8A/L	-ni	4f#\	-ni	4a\	-ni
8D\J	.	8F#/J	.	.	.	.	.
!	!	!	!	!	!	!LO:LB:g=original	!
=25	=25	=25	=25	=25	=25	=25	=25
8G\	ge-	8G/	ge-	8d\	ge-	8b-\	ge-
8G\	-ni-	8G/	-ni-	8d\	-ni-	8b-\	-ni-
4G\	-te	4G/	-te	4d\	-te	4b-\	-te
4F#X\	Je-	4A/	Je-	4e-X\	Je-	4cc\	Je-
4G\	-su	4G/	-su	4d\	-su	4b-\	-su
!	!	!	!	!LO:LB:g=original	!	!	!
=26	=26	=26	=26	=26	=26	=26	=26
4A\	Je-	4c\	Je-	4f#X\	Je-	4a\	Je-
4G\	-su	4B-\	-su	4g\	-su	4b-\	-su
4d\	Chri-	2d\	Chri-	4g\	Chri-	4b-\	Chri-
4D\	.	.	.	4f#\	.	4a\	.
=27	=27	=27	=27	=27	=27	=27	=27
2G\	-ste,	2d\	-ste,	2g\	-ste,	2b-\	-ste,
4Fn\	Do-	4d\	Do-	4g\	Do-	4bn\	Do-
8F\	-mi-	8d\	-mi-	8g\	-mi-	8b\	-mi-
8F\	-ne	8d\	-ne	8g\	-ne	8b\	-ne
=28	=28	=28	=28	=28	=28	=28	=28
4E-X\	De-	4e-X\	De-	4g\	De-	4cc\	De-
4C\	-us	4c\	-us	4g\	-us	4ee-X\	-us
4F\	Ag-	4A\	Ag-	4fn\	Ag-	4cc\	A-
4E-\	-nus	4A\	-nus	4f\	-nus	4cc\	-gnus
!	!	!LO:LB:g=original	!	!	!	!	!
=29	=29	=29	=29	=29	=29	=29	=29
8D/L	De-	8f\L	De-	4f\	De-	8b-\L	De-
8C/J	.	8e-X\J	.	.	.	8cc\J	.
4BB-/	-i	4d\	-i	4f\	-i	4dd\	-i
!LO:LB:g=original	!	!	!	!	!	!	!
4AA/	Fi-	4c\	Fi-	4f\	Fi-	4ee-X\	Fi-
8BB-/	-li-	8B-\	-li-	8f\	-li-	8dd\	-li-
8BB-/	-us	8B-\	-us	8f\	-us	8dd\	-us
!	!	!	!	!	!	!LO:LB:g=original	!
=30	=30	=30	=30	=30	=30	=30	=30
8F\L	Pa-	2B-\	Pa-	8d\L	Pa-	2dd\	Pa-
8E-X\	.	.	.	8e-X\	.	.	.
8D\	.	.	.	8f\	.	.	.
8E-\J	.	.	.	8e-\J	.	.	.
2F\	.	2A\	.	2f\	.	2cc\	.
=31	=31	=31	=31	=31	=31	=31	=31
2BB-/	-tris,	2B-\	-tris,	2f\	-tris	2dd\	-tris,
2B-\	qui	2B-\	qui	2f\	qui	2dd\	qui
=32	=32	=32	=32	=32	=32	=32	=32
2A-X\	tol-	2B-\	tol-	2f\	tol-	2dd\	tol-
!	!	!	!	!LO:LB:g=original	!	!	!
4A-\	-lis	4B-\	-lis	4f\	-lis	4dd\	-lis
4A-\	pec-	4B-\	pec-	4f\	pec-	4dd\	pec-
=33	=33	=33	=33	=33	=33	=33	=33
2G\	-ca-	2G/	-ca-	2e-X\	-ca-	2b-\	-ca-
2F\	-ta	2A-X/	-ta	2f\	-ta	2b-\	-ta
=34	=34	=34	=34	=34	=34	=34	=34
4E-X\	mun-	4B-/	mun-	4g\	mun-	2.b-\	mun-
4F\	.	4A-X/	.	4a-X\	.	.	.
4G\	.	4G/	.	4g\	.	.	.
4A-X\	.	4F/	.	4f\	.	4cc\	.
=35	=35	=35	=35	=35	=35	=35	=35
2B-\	-di,	2B-\	-di	2f\	-di	2dd\	-di,
4Bn\	mi-	4A-X\	mi-	4f\	mi-	4dd\	mi-
4B\	-se-	4A-\	-se-	4f\	-se-	4dd\	-se-
!LO:LB:g=original	!	!	!	!	!	!	!
=36	=36	=36	=36	=36	=36	=36	=36
4c\	-re-	2.G/	-re-	2g\	-re-	2ee-X\	-re-
4G\	.	.	.	.	.	.	.
4E-X\	.	.	.	4e-X\	.	4cc\	.
4C/	-re	4c\	-re	4g\	-re	4ee-\	-re
!	!	!LO:LB:g=original	!	!	!	!	!
=37	=37	=37	=37	=37	=37	=37	=37
4F\	no-	2c\	no-	2a-X\	no-	1dd	no-
4D\	.	.	.	.	.	.	.
2G\	.	2Bn\	.	2f\	.	.	.
=38	=38	=38	=38	=38	=38	=38	=38
2C/	-bis,	2c\	-bis,	2g\	-bis,	2ee-X\	-bis,
2C/	qui	2c\	qui	2g\	qui	2ee-\	qui
!	!	!	!	!	!	!LO:LB:g=original	!
=39	=39	=39	=39	=39	=39	=39	=39
1BBn	tol-	1d	tol-	1a-X	tol-	1ff	tol-
=40	=40	=40	=40	=40	=40	=40	=40
2C/	-lis	2c\	-lis	2g\	-lis	2ee-X\	-lis
2GG/	pec-	2Bn\	pec-	2g\	pec-	2dd\	pec-
=41	=41	=41	=41	=41	=41	=41	=41
4C/	-ca-	4c\	-ca-	2.g\	-ca-	4ee\	-ca-
4D\	.	4Bn\	.	.	.	4dd\	.
4E-X\	.	4G\	.	.	.	4cc\	.
4F\	-ta	4A-X\	-ta	4g\	-ta	4cc\	-ta
!	!	!	!	!LO:LB:g=original	!	!	!
=42	=42	=42	=42	=42	=42	=42	=42
4G\	mun-	4Bn\	mun-	4g\	mun-	4dd\	mun-
4GG/	-di	4B\	-di	4g\	-di	4dd\	-di,
2r	.	2r	.	2r	.	2r	.
=43	=43	=43	=43	=43	=43	=43	=43
2E-X\	Sus-	2B-X\	sus-	2g\	Sus-	2ee-X\	sus-
4E-\	-ci-	4B-\	-ci-	4g\	-ci-	4ee-\	-ci-
4E-\	-pe	4B-\	-pe	4g\	-pe	4ee-\	-pe
=44	=44	=44	=44	=44	=44	=44	=44
4D/	de-	4B-\	de-	4f\	de-	4dd\	de-
4BB-/	-pre-	4B-\	-pre-	4d\	-pre-	4dd\	-pre-
!LO:LB:g=original	!	!	!	!	!	!	!
4D/	-ca-	4B-\	-ca-	4f\	-ca-	4dd\	-ca-
4BB-/	-ti-	4B-\	-ti-	4d\	-ti-	4dd\	-ti-
=45	=45	=45	=45	=45	=45	=45	=45
4E-X\	-o-	4G/	-o-	4g\	-o-	4ee-X\	-o-
4F\	.	4A-X/	.	4f\	.	4dd\	.
4G\	.	4B-/	.	4e-X\	.	4b-\	.
4A-X\	-nem	4c\	-nem	4f\	-nem	4an\	-nem
!	!	!LO:LB:g=original	!	!	!	!	!
=46	=46	=46	=46	=46	=46	=46	=46
2B-\	no-	2G/	no-	2e\	no-	1b-	no-
2BB-/	.	2F/	.	2d\	.	.	.
!	!	!	!	!	!	!LO:LB:g=original	!
=47	=47	=47	=47	=47	=47	=47	=47
2E-X\	-stram,	2G/	-stram	2e\	-stram	2b-\	-stram
2En\	qui	2G/	qui	2c\	qui	2b-\	qui
=48	=48	=48	=48	=48	=48	=48	=48
2En\	se-	2G/	se-	2c\	se-	2b-\	se-
2E\	-des,	2G/	-des	2c\	-des	2b-\	-des,
=49	=49	=49	=49	=49	=49	=49	=49
4r	.	4r	.	4r	.	4r	.
4E\	ad	4G/	ad	4c\	ad	4b-\	ad
4E\	dex-	4G/	dex-	4c\	dex-	8b-\	dex-
.	.	.	.	.	.	8b-\	-te-
8E\	-te-	8G/	-te-	8c\	-te-	4b-\	-ram
8E\	-ram	8G/	-ram	8c\	-ram	.	.
!	!	!	!	!LO:LB:g=original	!	!	!
=50	=50	=50	=50	=50	=50	=50	=50
2F\	Pa-	2F/	Pa-	2c\	Pa-	2a-X\	Pa-
2F\	-tris,	2F/	-tris,	2c\	-tris	2a-\	-tris
=51	=51	=51	=51	=51	=51	=51	=51
2D\	mi-	2B-\	mi-	2a-X\	mi-	2ff\	mi-
2E-X\	-se-	2B-\	-se-	2g\	-se-	2ee-X\	-se-
=52	=52	=52	=52	=52	=52	=52	=52
2A-X\	-re-	2B-\	-re-	2f\	-re-	2dd\	-re-
2G\	-re	2G/	-re	2e-X\	-re	2b-\	-re
!LO:LB:g=original	!	!	!	!	!	!	!
=53	=53	=53	=53	=53	=53	=53	=53
4E-X\	no-	1B-	no-	2e-X\	no-	2g/	no-
4G\	.	.	.	.	.	.	.
4B-\	.	.	.	2d\	.	2f/	.
4BB-/	.	.	.	.	.	.	.
=54	=54	=54	=54	=54	=54	=54	=54
2E\	-bis,	2B-\	-bis,	2e\	-bis,	2g\	-bis,
2r	.	2r	.	2r	.	2r	.
!	!	!LO:LB:g=original	!	!	!	!	!
=55	=55	=55	=55	=55	=55	=55	=55
4C/	Quo-	4.c\	Quo-	4g\	Quo-	4ee-X\	Quo-
4D/	-ni-	.	.	4f\	-ni-	4dd\	-ni-
.	.	8G/	-ni-	.	.	.	.
!	!	!	!	!	!	!LO:LB:g=original	!
4E-X/	-am	4G/	-am	4e-X\	-am	4cc\	-am
4F\	tu	4G/	tu	4d\	tu	4bn\	tu
=56	=56	=56	=56	=56	=56	=56	=56
4G\	so-	2.G/	so-	4e-X\	so-	4cc\	so-
4F\	.	.	.	4d\	.	4bn\	.
!LO:SIC:v:s=4E-	!	!	!	!	!	!	!
4E\	.	.	.	4e-\	.	4cc\	.
4D\	-lus	4G/	-lus	4f\	-lus	4dd\	-lus
=57	=57	=57	=57	=57	=57	=57	=57
4C/	san-	4G/	san-	4e\	san-	4cc\	san-
4GG/	-ctus,	4G/	-ctus	4d\	-ctus	4bn\	-ctus,
2r	.	2r	.	4r	.	4r	.
.	.	.	.	8d\L	tu	8b\L	tu
.	.	.	.	8e\J	.	8cc\J	.
=58	=58	=58	=58	=58	=58	=58	=58
4r	.	4r	.	2f\	so-	2.dd\	so-
4G\	tu	4Bn\	tu	.	.	.	.
!	!	!	!	!LO:LB:g=original	!	!	!
4Bn\	so-	4d\	so-	4e-X\	-lus	.	.
4G\	-lus	4B\	-lus	4d\	.	4bn\	-lus
=59	=59	=59	=59	=59	=59	=59	=59
4c\	Do-	4G/	Do-	4.e-X\	Do-	4.cc\	Do-
4G\	-mi-	4Bn\	-mi-	.	.	.	.
.	.	.	.	8f\	-mi-	8dd\	-mi-
4C/	-nus,	4c\	-nus	4g\	-nus	4ee-X\	-nus
4C/	tu	4c\	tu	4g\	tu	4ee-\	tu
=60	=60	=60	=60	=60	=60	=60	=60
4C/	so-	4c\	so-	4g\	so-	4ee-X\	so-
8BBn/	-lus	8d\	-lus	8a-X\	-lus	8ff\	-lus
8C/	al-	8c\	al-	8g\	al-	8ee-\	al-
!LO:LB:g=original	!	!	!	!	!	!	!
4F\	-tis-	4A-X\	-tis-	4f\	-tis-	4dd\	-tis-
4F#X\	-si-	4An\	-si-	4e-X\	-si-	4cc\	-si-
=61	=61	=61	=61	=61	=61	=61	=61
2G\	-mus,	2G/	-mus	2d\	-mus	2bn\	-mus
2r	.	2r	.	2r	.	2r	.
!	!	!	!	!	!	!LO:LB:g=original	!
=62	=62	=62	=62	=62	=62	=62	=62
4G\	Je-	4Bn\	Je-	1f	Je-	1dd	Je-
4A\	.	4c\	.	.	.	.	.
4Bn\	.	4d\	.	.	.	.	.
4G\	-su	4B\	-su	.	.	.	.
!	!	!LO:LB:g=original	!	!	!	!	!
=63	=63	=63	=63	=63	=63	=63	=63
4c\	Je-	2c\	Je-	1g	-su	1een	-su
4G\	.	.	.	.	.	.	.
4En\	.	2c\	-su	.	.	.	.
4C/	-su	.	.	.	.	.	.
=64	=64	=64	=64	=64	=64	=64	=64
4F\	Je-	2A\	Chri-	2f\	Chri-	2dd\	Chri-
4D\	-su	.	.	.	.	.	.
4G\	Chri-	2G/	.	2d\	.	2bn\	.
4GG/	.	.	.	.	.	.	.
=65	=65	=65	=65	=65	=65	=65	=65
!LO:TX:t=P:problem:segno między	!	!LO:TX:t=P:problem:segno między	!	!LO:TX:t=P:problem:segno	!	!LO:TX:t=P:problem:segno między	!
!LO:TX:a:t=[segno]	!	!LO:TX:a:t=[segno]	!	!LO:TX:a:t=[segno]	!	!LO:TX:a:t=[segno]	!
2C/	-ste,	2G/	-ste,	2en\	-ste,	2cc\	-ste,
2c\	Cum	2c\	cum	2g\	Cum	2ee-X\	Cum
=66	=66	=66	=66	=66	=66	=66	=66
2B-X\	san-	2c\	san-	2g\	san-	2ee\	san-
2B-\	-cto	2c\	-cto	2g\	-cto	2ee\	-cto
!	!	!	!	!LO:LB:g=original	!	!	!
=67	=67	=67	=67	=67	=67	=67	=67
4A\	spi-	4c\	spi-	4f\	spi-	4cc\	ſpi-
4G\	-ri-	4c\	-ri-	4en\	-ri-	4cc\	-ri-
4A\	-tu	4c\	-tu	4f\	-tu	4cc\	-tu
4F\	in	4c\	in	4a\	in	4cc\	in
!LO:LB:g=original	!	!	!	!	!	!	!
=68	=68	=68	=68	=68	=68	=68	=68
4c\	glo-	4e\	glo-	4g\	glo-	2b-\	glo-
8C/	-ri-	8e\	-ri-	8g\	-ri-	.	.
8C/	-a	8e\	-a	8g\	-a	.	.
4E\	De-	4c\	De-	4g\	De-	4b-\	-ri-
4C/	-i	4e\	-i	4e\	-i	4g\	-a
=69	=69	=69	=69	=69	=69	=69	=69
4F\	Pa-	2.c\	Pa-	4a\	Pa-	4cc\	De-
4C/	.	.	.	4g\	.	4b-\	.
4AA/	.	.	.	4f\	.	4a\	.
4BB-/	-tris	4d\	-tris	4g\	-tris	4b-\	-i
=70	=70	=70	=70	=70	=70	=70	=70
1C	a-	1c	a-	2f\	a-	2a\	Pa-
.	.	.	.	2e\	-men	2g\	-tris
=71	=71	=71	=71	=71	=71	=71	=71
2F\	-men	2c\	-men	2f\	a-	2a\	a-
2C/	a-	2e\	a-	2g\	.	2b-\	.
=72	=72	=72	=72	=72	=72	=72	=72
1FF	-men.	2f\	-men.	2a\	-men.	1cc	-men.
.	.	2r	.	2r	.	.	.
==	==	==	==	==	==	==	==
*-	*-	*-	*-	*-	*-	*-	*-
!!!system-decoration: [(s1,s2,s3,s4)]
!!!ENC: Andrzej Gręziak
!!!END: 2023-11-07
!!!EED: Jan Barakat
!!!EEV: 2023-11-29
